X: 25130
T: Mairi's Wedding
R: polka
M: 2/4
K: Dmixolydian
|:D>D DE|GA B2|AG EG|BA Bd|
D>D DE|GA B2|AG EG|D2 D2:|
|:d>d de|dc B2|AG EG|BA B>^c|
d>d de|dc B2|AG EG|D2 D2:|

